icon-themes/sifr_svg/cmd/lc_equalizewidth.svg

<svg viewBox="0 0 24 24" xmlns="http://www.w3.org/2000/svg"><path d="m3 3v8h20v-8zm2 2h2v3h2v-3h3v3h2v-3h3v3h2v-3h2v4h-16zm-4 8v8h20v-8zm2 2h2v3h2v-3h3v3h2v-3h3v3h2v-3h2v4h-16z" fill="#555753"/></svg>

<svg xmlns="http://www.w3.org/2000/svg" viewBox="0 0 24 24">
  <path
     style="fill:#555753"
     d="m 3,3 v 8 H 23 V 3 Z M 5,5 H 7 V 8 H 9 V 5 h 3 v 3 h 2 V 5 h 3 v 3 h 2 V 5 h 2 V 9 H 5 Z m -4,8 v 8 h 20 v -8 z m 2,2 h 2 v 3 h 2 v -3 h 3 v 3 h 2 v -3 h 3 v 3 h 2 v -3 h 2 v 4 H 3 Z"
     />
</svg>
